apps/64/audio-editor.svg

<?xml version="1.0" encoding="UTF-8" standalone="no"?>
<!-- Created with Inkscape (http://www.inkscape.org/) -->

<svg
   xmlns:dc="http://purl.org/dc/elements/1.1/"
   xmlns:cc="http://creativecommons.org/ns#"
   xmlns:rdf="http://www.w3.org/1999/02/22-rdf-syntax-ns#"
   xmlns:svg="http://www.w3.org/2000/svg"
   xmlns="http://www.w3.org/2000/svg"
   xmlns:sodipodi="http://sodipodi.sourceforge.net/DTD/sodipodi-0.dtd"
   xmlns:inkscape="http://www.inkscape.org/namespaces/inkscape"
   width="64"
   height="64"
   id="svg13094"
   version="1.1"
   inkscape:version="0.91+devel r"
   sodipodi:docname="audio-editor.svg">
  <sodipodi:namedview
     id="base"
     pagecolor="#ffffff"
     bordercolor="#666666"
     borderopacity="1.0"
     inkscape:pageopacity="0"
     inkscape:pageshadow="2"
     inkscape:zoom="8.0000004"
     inkscape:cx="46.871305"
     inkscape:cy="35.994634"
     inkscape:document-units="px"
     inkscape:current-layer="svg13094"
     showgrid="true"
     inkscape:snap-bbox="true"
     inkscape:bbox-paths="true"
     inkscape:bbox-nodes="true"
     inkscape:snap-bbox-edge-midpoints="true"
     inkscape:snap-bbox-midpoints="true"
     inkscape:object-paths="true"
     inkscape:snap-intersection-paths="true"
     inkscape:object-nodes="true"
     inkscape:snap-smooth-nodes="true"
     inkscape:snap-midpoints="true"
     inkscape:snap-object-midpoints="true"
     inkscape:snap-center="true"
     showguides="true"
     inkscape:guide-bbox="true"
     inkscape:window-width="1920"
     inkscape:window-height="1023"
     inkscape:window-x="-10"
     inkscape:window-y="35"
     inkscape:window-maximized="1"
     inkscape:snap-global="true"
     fit-margin-top="0"
     fit-margin-left="0"
     fit-margin-right="0"
     fit-margin-bottom="0"
     showborder="true"
     inkscape:showpageshadow="false"
     inkscape:snap-page="true">
    <inkscape:grid
       type="xygrid"
       id="grid3075"
       empspacing="5"
       visible="true"
       enabled="true"
       snapvisiblegridlinesonly="true"
       originx="1.6362304e-08px"
       originy="18px" />
  </sodipodi:namedview>
  <defs
     id="defs13096">
    <inkscape:path-effect
       is_visible="true"
       id="path-effect5474"
       effect="spiro" />
    <inkscape:path-effect
       effect="spiro"
       id="path-effect3794"
       is_visible="true" />
  </defs>
  <metadata
     id="metadata13099">
    <rdf:RDF>
      <cc:Work
         rdf:about="">
        <dc:format>image/svg+xml</dc:format>
        <dc:type
           rdf:resource="http://purl.org/dc/dcmitype/StillImage" />
        <dc:title></dc:title>
      </cc:Work>
    </rdf:RDF>
  </metadata>
  <path
     id="path5441"
     d="m 0,4 0,30 0,28 2,2 30,0 30,0 2,-2 L 64,34 64,4 32,4 0,4 Z"
     style="color:#000000;display:inline;overflow:visible;visibility:visible;fill:#3b74dd;fill-opacity:1;fill-rule:nonzero;stroke:none;stroke-width:2.28571415;marker:none;enable-background:accumulate"
     inkscape:connector-curvature="0" />
  <path
     sodipodi:nodetypes="cccccc"
     inkscape:connector-curvature="0"
     id="path4223"
     d="M 1,63 32,34 63,63 62,64 2,64 Z"
     style="color:#000000;display:inline;overflow:visible;visibility:visible;opacity:1;fill:#4a5ae0;fill-opacity:1;fill-rule:nonzero;stroke:none;stroke-width:0.89999998;stroke-linecap:butt;stroke-linejoin:round;stroke-miterlimit:4;stroke-dasharray:none;stroke-dashoffset:0;stroke-opacity:1;marker:none;enable-background:accumulate" />
  <path
     style="color:#000000;display:inline;overflow:visible;visibility:visible;opacity:1;fill:#8b4ae0;fill-opacity:1;fill-rule:nonzero;stroke:none;stroke-width:0.89999998;stroke-linecap:butt;stroke-linejoin:round;stroke-miterlimit:4;stroke-dasharray:none;stroke-dashoffset:0;stroke-opacity:1;marker:none;enable-background:accumulate"
     d="M 1,5 32,34 63,5 62,4 2,4 Z"
     id="path4221"
     inkscape:connector-curvature="0"
     sodipodi:nodetypes="cccccc" />
  <path
     style="color:#000000;display:inline;overflow:visible;visibility:visible;opacity:1;fill:#6f4ae0;fill-opacity:1;fill-rule:nonzero;stroke:none;stroke-width:0.89999998;stroke-linecap:butt;stroke-linejoin:round;stroke-miterlimit:4;stroke-dasharray:none;stroke-dashoffset:0;stroke-opacity:1;marker:none;enable-background:accumulate"
     d="M 1,63 32,34 1,5 0,6 0,62 Z"
     id="path4225"
     inkscape:connector-curvature="0" />
  <path
     inkscape:connector-curvature="0"
     style="color:#000000;fill:#c267ff;fill-opacity:1;fill-rule:nonzero;stroke:none;stroke-width:2.28571415;marker:none;visibility:visible;display:inline;overflow:visible;enable-background:accumulate"
     d="M 2,0 0,1 0,4 32,4 64,4 64,1 62,0 32,0 2,0 z"
     id="path4090" />
  <path
     style="fill:#c979ff;fill-opacity:1;fill-rule:nonzero"
     d="M 0,3 0,6 2,4 Z"
     id="path4298"
     inkscape:connector-curvature="0"
     sodipodi:nodetypes="cccc" />
  <path
     d="M 64,6 62,4 64,3 z"
     id="path3028"
     style="fill:#a859f0;fill-opacity:1"
     inkscape:connector-curvature="0" />
  <g
     id="g3043"
     inkscape:export-filename="folder.png"
     inkscape:export-xdpi="90"
     inkscape:export-ydpi="90"
     transform="translate(-0.62500009,0.082283)" />
  <g
     id="scalable"
     transform="matrix(1.0385892,0,0,1.0385892,1214.7222,1878.8121)"
     inkscape:label="#g3701"
     style="fill:#ffffff" />
  <path
     sodipodi:nodetypes="ccccccccccccccccccccc"
     inkscape:connector-curvature="0"
     inkscape:original-d="M 1,34 13.596194,34 15.647754,14.954594 16.673534,41 17.699314,24 19.750873,56 21.802433,10.18198 23,50 23.853993,24 25,31 26.931333,17 27.957113,52 28.982893,26 31,41 l 1.060233,-13 1.02578,6 0,-18.363604 L 35.137572,43 37.189132,28 38.214912,34 63,34"
     inkscape:path-effect="#path-effect5474"
     id="path5470"
     d="M 1,34 13.596194,34 15.647754,14.954594 16.673534,41 17.699314,24 19.750873,56 21.802433,10.18198 23,50 23.853993,24 25,31 26.931333,17 27.957113,52 28.982893,26 31,41 l 1.060233,-13 1.02578,6 0,-18.363604 L 35.137572,43 37.189132,28 38.214912,34 63,34"
     style="fill:none;stroke:#000000;stroke-width:1.9;stroke-linecap:butt;stroke-linejoin:round;stroke-miterlimit:4;stroke-opacity:0.02057245;stroke-dasharray:none" />
  <path
     style="fill:none;stroke:#b6ecfa;stroke-width:1;stroke-linecap:butt;stroke-linejoin:round;stroke-miterlimit:4;stroke-dasharray:none;stroke-opacity:1"
     d="M 0,34 13.596194,34 15.647754,14.954594 16.673534,41 17.699314,24 19.750873,56 21.802433,10.18198 23,50 23.853993,24 25,31 26.931333,17 27.957113,52 28.982893,26 31,41 l 1.060233,-13 1.02578,6 0,-18.363604 L 35.137572,43 37.189132,28 38.214912,34 64,34"
     id="path3792"
     inkscape:path-effect="#path-effect3794"
     inkscape:original-d="M 0,34 13.596194,34 15.647754,14.954594 16.673534,41 17.699314,24 19.750873,56 21.802433,10.18198 23,50 23.853993,24 25,31 26.931333,17 27.957113,52 28.982893,26 31,41 l 1.060233,-13 1.02578,6 0,-18.363604 L 35.137572,43 37.189132,28 38.214912,34 64,34"
     inkscape:connector-curvature="0"
     sodipodi:nodetypes="ccccccccccccccccccccc" />
</svg>

<?xml version="1.0" encoding="UTF-8"?>
<!-- Created with Inkscape (http://www.inkscape.org/) -->
<svg width="64" height="64" version="1.1" xmlns="http://www.w3.org/2000/svg" xmlns:cc="http://creativecommons.org/ns#" xmlns:dc="http://purl.org/dc/elements/1.1/" xmlns:rdf="http://www.w3.org/1999/02/22-rdf-syntax-ns#" xmlns:xlink="http://www.w3.org/1999/xlink">
	<defs>
		<linearGradient id="a">
			<stop stop-color="#260071" stop-opacity=".75686" offset="0"/>
			<stop stop-color="#3100af" stop-opacity=".40766" offset=".31429"/>
			<stop stop-color="#3b00e5" stop-opacity=".18369" offset=".58569"/>
			<stop stop-color="#3e00d0" stop-opacity=".027451" offset="1"/>
		</linearGradient>
		<radialGradient id="e" cx="21.274" cy="32.829" r="32" gradientTransform="matrix(.61616 0 0 .84636 -66.625 3.8891)" gradientUnits="userSpaceOnUse" xlink:href="#b"/>
		<linearGradient id="b">
			<stop stop-color="#44ecff" stop-opacity=".22495" offset="0"/>
			<stop stop-color="#4aefff" stop-opacity=".11829" offset=".5"/>
			<stop stop-color="#6af4ff" stop-opacity=".05042" offset=".75"/>
			<stop stop-color="#4df5ff" stop-opacity="0" offset="1"/>
		</linearGradient>
		<radialGradient id="g" cx="26.312" cy="42.443" r="32" gradientTransform="matrix(1.5611 1.5205e-8 0 .18746 -87.608 25.132)" gradientUnits="userSpaceOnUse" xlink:href="#b"/>
		<radialGradient id="f" cx="-18.158" cy="33.746" r="32" gradientTransform="matrix(.8862 0 0 .9375 4.0916 2.3635)" gradientUnits="userSpaceOnUse" xlink:href="#a"/>
		<radialGradient id="d" cx="-60.854" cy="32.426" r="32" gradientTransform="matrix(.8862 0 0 .9375 4.0916 2.3635)" gradientUnits="userSpaceOnUse" xlink:href="#a"/>
		<radialGradient id="c" cx="-90.376" cy="33.746" r="32" gradientTransform="matrix(.8862 0 0 .9375 4.0916 2.3635)" gradientUnits="userSpaceOnUse" xlink:href="#a"/>
	</defs>
	<metadata>
		<rdf:RDF>
			<cc:Work rdf:about="">
				<dc:format>image/svg+xml</dc:format>
				<dc:type rdf:resource="http://purl.org/dc/dcmitype/StillImage"/>
				<dc:title/>
			</cc:Work>
		</rdf:RDF>
	</metadata>
	<g transform="translate(75.837 1.2374)">
		<path d="m-75.837 0.76256v60l2 2h60l2-2v-60h-32z" color="#000000" fill="url(#e)"/>
		<path d="m-75.837 0.76256v60l2 2h60l2-2v-60h-32z" color="#000000" fill="url(#g)"/>
		<path d="m-75.837 0.76256v60l2 2h60l2-2v-60h-32z" color="#000000" fill="#11ebd6"/>
		<path d="m-75.837 0.76256v60l2 2h60l2-2v-60h-32z" color="#000000" fill="url(#f)"/>
		<path d="m-75.837 0.76256v60l2 2h60l2-2v-60h-32z" color="#000000" fill="url(#c)"/>
		<path d="m-75.837 0.76256v60l2 2h60l2-2v-60h-32z" color="#000000" fill="url(#d)"/>
	</g>
	<path d="m2 0-2 1v1h64v-1l-2-1h-30z" color="#000000" fill="#8efcf1"/>
	<path d="m1 34h12.596l2.0516-19.045 1.0258 26.045 1.0258-17 2.0516 32 2.0516-45.818 1.1976 39.818 0.85399-26 1.146 7 1.9313-14 1.0258 35 1.0258-26 2.0171 15 1.0602-13 1.0258 6v-18.364l2.0516 27.364 2.0516-15 1.0258 6h24.785" fill="none" stroke="#2f00ac" stroke-linejoin="round" stroke-opacity=".090373" stroke-width="5"/>
	<path d="m1 34h12.596l2.0516-19.045 1.0258 26.045 1.0258-17 2.0516 32 2.0516-45.818 1.1976 39.818 0.85399-26 1.146 7 1.9313-14 1.0258 35 1.0258-26 2.0171 15 1.0602-13 1.0258 6v-18.364l2.0516 27.364 2.0516-15 1.0258 6h24.785" fill="none" stroke="#050044" stroke-linejoin="round" stroke-width=".9"/>
	<path d="m0 1v3l2-2z" fill="#c0fdf7"/>
	<path d="m64 4-2-2 2-1z" fill="#72d4d1"/>
</svg>
